img/brands/5.svg

<svg width="271" height="23" viewBox="0 0 271 23" fill="none" xmlns="http://www.w3.org/2000/svg">
<path d="M9.60034 11.0335L18.8422 23H12.5879L5.29811 13.224H5.1786V23H0V0H5.13876V9.32981H5.25827L12.5481 0H18.4836L9.60034 11.0335ZM79.1525 23H73.536L71.3852 17.5644H64.0954L62.0634 23H56.9644L65.768 0H69.8714L79.1525 23ZM69.7914 13.3052L68.5569 9.69484C68.1982 8.59964 67.8794 7.62607 67.76 6.89596H67.72C67.6006 7.66669 67.2819 8.64026 66.9237 9.65433L65.5692 13.3457H69.7914V13.3052ZM26.0922 13.4673H33.382V9.16757H26.0922V4.25926H33.3422L35.0551 0H20.8737V23H34.5372V18.7407H26.0922V13.4673ZM56.925 23H50.6706L44.9742 13.9135H43.1815V23H37.9233V0H44.4164C48.6389 0 50.7901 0.446208 52.1046 1.46032C53.6981 2.71781 54.6143 4.50264 54.6143 6.49032C54.6143 11.1552 50.3519 12.7778 50.3519 12.7778L56.925 23ZM49.5154 7.05819C49.5154 5.19224 48.0016 4.25926 46.0895 4.25926H43.1417V9.81657H45.5716C47.8024 9.81657 49.5154 9.04584 49.5154 7.05819ZM265.782 0V23H271V0H265.782ZM93.932 7.91004C93.2545 9.00529 92.697 9.97886 92.2983 10.7901H92.2188C91.7007 9.89769 91.1432 9.04584 90.4662 8.07227L84.8491 0H80.1488V23H85.3272V11.1552C85.3272 10.5467 85.3272 9.61378 85.2878 8.84305H85.3672C85.8454 9.69484 86.4029 10.4251 86.881 11.0741L91.0638 16.9154H93.334L97.0391 11.2769C97.3973 10.6684 98.3541 9.32981 98.5524 8.84305H98.5924C98.5524 9.53266 98.5524 10.4656 98.5524 11.3175V23H103.731V0H98.9911L93.932 7.91004ZM126.836 23H121.219L119.068 17.5644H111.778L109.747 23H104.648L113.411 0H117.515L126.836 23ZM117.474 13.3052L116.24 9.69484C115.881 8.59964 115.563 7.62607 115.403 6.89596H115.363C115.244 7.66669 114.925 8.64026 114.526 9.65433L113.172 13.3457H117.474V13.3052ZM149.104 7.91004C148.426 9.00529 147.869 9.97886 147.471 10.7901H147.391C146.873 9.89769 146.315 9.04584 145.639 8.07227L140.021 0H135.321V23H140.499V11.1552C140.499 10.5467 140.499 9.61378 140.46 8.84305H140.539C141.017 9.69484 141.575 10.4251 142.053 11.0741L146.236 16.9154H148.506L152.211 11.2769C152.57 10.6684 153.526 9.32981 153.724 8.84305H153.765C153.724 9.53266 153.724 10.4656 153.724 11.3175V23H158.903V0H154.163L149.104 7.91004ZM182.128 23H176.47L174.32 17.5644H167.03L164.998 23H159.899L168.702 0H172.806L182.128 23ZM172.766 13.3052L171.531 9.69484C171.173 8.59964 170.854 7.62607 170.694 6.89596H170.655C170.535 7.66669 170.216 8.64026 169.818 9.65433L168.464 13.3457H172.766V13.3052ZM224.672 0L226.344 4.13756H235.666L224.352 23H243.553V18.7001H232.758L243.752 0H224.672ZM215.031 0L224.352 23H218.696L216.545 17.5644H209.255L207.223 23H202.125L210.928 0H215.031ZM214.992 13.3052L213.757 9.69484C213.398 8.59964 213.079 7.62607 212.96 6.89596H212.92C212.801 7.66669 212.482 8.64026 212.124 9.65433L210.769 13.3457H214.992V13.3052ZM195.512 12.7778L202.085 23H195.831L190.134 13.9135H188.342V23H183.083V0H189.577C193.799 0 195.95 0.446208 197.265 1.46032C198.858 2.71781 199.775 4.50264 199.775 6.49032C199.775 11.1552 195.512 12.7778 195.512 12.7778ZM194.716 7.05819C194.716 5.19224 193.202 4.25926 191.289 4.25926H188.342V9.81657H190.771C193.003 9.81657 194.716 9.04584 194.716 7.05819ZM244.47 0L246.142 4.13756H255.464L244.151 23H263.312V18.7001H252.516L263.511 0H244.47Z" fill="#293132"/>
</svg>

<svg width="271" height="23" fill="none" xmlns="http://www.w3.org/2000/svg"><path d="M9.6 11.034 18.842 23h-6.254l-7.29-9.776h-.12V23H0V0h5.139v9.33h.12L12.548 0h5.935L9.6 11.034ZM79.152 23h-5.616l-2.15-5.436h-7.29L62.062 23h-5.099l8.804-23h4.103l9.282 23Zm-9.36-9.695-1.235-3.61c-.359-1.095-.678-2.069-.797-2.799h-.04c-.12.77-.438 1.744-.796 2.758l-1.355 3.692h4.222v-.04Zm-43.7.162h7.29v-4.3h-7.29V4.26h7.25L35.055 0H20.874v23h13.663v-4.26h-8.445v-5.273ZM56.925 23h-6.254l-5.697-9.086h-1.792V23h-5.259V0h6.493c4.223 0 6.374.446 7.689 1.46 1.593 1.258 2.51 3.043 2.51 5.03 0 4.665-4.263 6.288-4.263 6.288L56.925 23Zm-7.41-15.942c0-1.866-1.513-2.799-3.425-2.799h-2.948v5.558h2.43c2.23 0 3.943-.771 3.943-2.759ZM265.782 0v23H271V0h-5.218ZM93.932 7.91c-.678 1.095-1.235 2.069-1.634 2.88h-.08a38.892 38.892 0 0 0-1.752-2.718L84.85 0h-4.7v23h5.178V11.155c0-.608 0-1.541-.04-2.312h.08c.478.852 1.036 1.582 1.514 2.231l4.183 5.841h2.27l3.705-5.638c.358-.609 1.315-1.947 1.513-2.434h.04c-.04.69-.04 1.623-.04 2.475V23h5.179V0h-4.74l-5.059 7.91ZM126.836 23h-5.617l-2.151-5.436h-7.29L109.747 23h-5.099l8.763-23h4.104l9.321 23Zm-9.362-9.695-1.234-3.61c-.359-1.095-.677-2.069-.837-2.799h-.04c-.119.77-.438 1.744-.837 2.758l-1.354 3.692h4.302v-.04Zm31.63-5.395c-.678 1.095-1.235 2.069-1.633 2.88h-.08a39.205 39.205 0 0 0-1.752-2.718L140.021 0h-4.7v23h5.178V11.155c0-.608 0-1.541-.039-2.312h.079c.478.852 1.036 1.582 1.514 2.231l4.183 5.841h2.27l3.705-5.638c.359-.609 1.315-1.947 1.513-2.434h.041c-.041.69-.041 1.623-.041 2.475V23h5.179V0h-4.74l-5.059 7.91ZM182.128 23h-5.658l-2.15-5.436h-7.29L164.998 23h-5.099l8.803-23h4.104l9.322 23Zm-9.362-9.695-1.235-3.61c-.358-1.095-.677-2.069-.837-2.799h-.039c-.12.77-.439 1.744-.837 2.758l-1.354 3.692h4.302v-.04ZM224.672 0l1.672 4.138h9.322L224.352 23h19.201v-4.3h-10.795L243.752 0h-19.08Zm-9.641 0 9.321 23h-5.656l-2.151-5.436h-7.29L207.223 23h-5.098l8.803-23h4.103Zm-.039 13.305-1.235-3.61c-.359-1.095-.678-2.069-.797-2.799h-.04c-.119.77-.438 1.744-.796 2.758l-1.355 3.692h4.223v-.04Zm-19.48-.527L202.085 23h-6.254l-5.697-9.086h-1.792V23h-5.259V0h6.494c4.222 0 6.373.446 7.688 1.46 1.593 1.258 2.51 3.043 2.51 5.03 0 4.665-4.263 6.288-4.263 6.288Zm-.796-5.72c0-1.866-1.514-2.799-3.427-2.799h-2.947v5.558h2.429c2.232 0 3.945-.771 3.945-2.759ZM244.47 0l1.672 4.138h9.322L244.151 23h19.161v-4.3h-10.796L263.511 0H244.47Z" fill="#293132"/></svg>
